X:1
T:Title
%%score 1 { 2 | 3 }
L:1/8
Q:1/4=107
M:6/8
K:F
V:1 treble nm="Grand Piano, Soprano"
V:2 bass nm="Choir Pad, Bass"
V:3 bass 
V:1
 C C2 [CF] [CF]2 | [CG] [FA]2- [FA]2- [FA]/ z/ | [CG] [CF]2 [CF] [CF]2 | %3
w: By~Peter~Philip~Bilhorn * * *|||
 [FA] [Fc]2- [Fc]2- [Fc]/ z/ | [Fc] [Fd]2 [Fd] [Fc]2 | [FA] [Fc]2 [EB] [FA]2 | %6
w: |||
 [DG][CF][FA]- [FA] [EG]2 | [CF] [CF]2- [CF]2- [CF]/ z/ | CC[CF]- [CF] [CF]2 | %9
w: |||
 [CG] [FA]2- [FA]3/2 z/ z | [CF][FA][FA]- [FA] [FA]2 | [FB] [Fc]2- [Fc]3/2 z/ z | %12
w: |||
 [Fc] [Fd]2 [Fd] [Fc]2 | [FA] [Fc]2 [EB] [FA]2 | [DG][CF][FA]- [FA] [EG]2 | [CF] [CF]2- [CF]3- | %16
w: ||||
 [CF]3 z3 |] %17
w: |
V:2
 A, A,2 A, A,2 | B,[K:treble] C2- C2- C/ z/ | B, A,2[K:bass] A, A,2 | C A,2- A,2- A,/ z/ | %4
 A, B,2 B, A,2 | C A,2 C C2 | B,A,C- C[K:bass] B,2 | A, A,2- A,2- A,/ z/ | A,A,A,- A, A,2 | %9
 B,[K:treble] C2- C3/2 z/ z | A,CC- C C2 | G, A,2- A,3/2 z/ z | A, B,2 B, A,2 | C A,2 C C2 | %14
 B,A,C- C[K:bass] B,2 | A, A,2- A,3- | A,3 z3 |] %17
V:3
 F, F,2 F, F,2 | F, F,2- F,2- F,/ z/ | F, F,2 F, F,2 | F, F,2- F,2- F,/ z/ | F, B,,2 B,, F,2 | %5
 F, F,2 G,, A,,2 | B,,C,C,- C, C,2 | F, F,2- F,2- F,/ z/ | F,F,F,- F, F,2 | F, F,2- F,3/2 z/ z | %10
 F,F,F,- F, F,2 | F, F,2- F,3/2 z/ z | F, B,,2 B,, F,2 | F, F,2 G,, A,,2 | B,,C,C,- C, C,2 | %15
 F, [F,,F,]2- [F,,F,]3- | [F,,F,]3 z3 |] %17

